elements/app-hax/lib/assets/images/DropDownBorder.svg

<svg xmlns="http://www.w3.org/2000/svg" fill="none" width="24" height="50" viewBox="0 0 24 50"><path d="M10 48h4M10 2h4M2 9v32M22 9v29m0-1v4m-20-.5c0 5 1.3 7.5 8.5 7.5M2 9.5C2 4.5 3.3 2 10.5 2M22 40.5c0 5-1.3 7.5-8.5 7.5M22 9.5c0-5-1.3-7.5-8.5-7.5" stroke="#000" stroke-width="4"/></svg>

<svg width="24" height="50" viewBox="0 0 24 50" fill="none" xmlns="http://www.w3.org/2000/svg">
<path d="M10 48H14M10 2H14M2 9V41M22 9V38M22 37V41M2 40.5C2 45.5 3.3 48 10.5 48M2 9.5C2 4.5 3.3 2 10.5 2M22 40.5C22 45.5 20.7 48 13.5 48M22 9.5C22 4.5 20.7 2 13.5 2" stroke="black" stroke-width="4"/>
</svg>
